src/img/krig-logomark.svg

<svg enable-background="new 0 0 1505.1 1012.6" viewBox="0 0 1505.1 1012.6" xmlns="http://www.w3.org/2000/svg"><path d="m1505.1 324.1-207.8-120.5-1.2-.7-163.5.8v-95.2l-187.9-108.5-940.4 340.7-3.3 1.2-1 337.5 187.8 108.4 190.2-68.6-.5 178.2 196.8 113.6 2.9 1.7 468.4-346.7 459.4-2.9v-339zm-927.8 345.4-1.4-.8h2.4zm5.5 8.6 12.6-9.3 87.7.1-100.5 73.3zm110.8-19.4-84.5-.1 84.8-62.8zm-101.5-.1h-34.5l-35.6-19.7v-144.2l172.8-62.6-.8 151.1zm-80.2 1.4-123.7 44.7.4-128.2 123.3 68.4zm-327.7 114-167.1-96.4 167.1-60.6zm-174-104.7.9-315 173.1 99.9v152.1zm940.5-654.1 164.8 95.1-164.8 59.4zm-10.1 158.2-92.1 33.2v159.1l-143.3 51.9.5-91.1-188.7 1.2-327.2 118-171.8-99.2 922.6-334.2zm181.8 260-72.6-41.9.2-56.5 72.5-.5v98.9zm-6.9 7.7-65.9 23.8.2-61.7zm-75.9-55.5-34.6-20 34.7-25.7zm5.2-60.8h-1.7l-47.7 35.3-44.8-25.9v-119.5l171.7-.9v110.4zm-104.2 7.5-82 29.7v-146.8l81.9-.4v117.5zm-57.6-127.4 57.5-20.8v20.5zm-360.9 132.9 163.1-1-163.1 121.5zm173.3 4-.5 79.5-172.9 62.6v-12.9zm-501.1 113 317.6-114.8v125.8l-56.7 42.2-260.9 94.5zm317.6 23.7v9l-23.6 8.5zm0 19.9v134.9l-119-66 67.2-50.1zm10.2 152.1 14.6 8.1h-14.6zm183-222.1 143.4-51.9v92.4l-144.3 106.7zm153.5-55.6 85.1-30.8 42.8 24.7-128 94.7v-88.6zm137.6-.6 43.4 25.1-.2 71.2-180.8 65.2v-59.7zm43.2 107.1-.2 55.6-156.2.8zm10.1-3.6 83-29.9v-111.4l156.3-1v200.3l-239.5 1.2zm243.8 68.1 188 109.2-432.3 2.8.3-110.8zm5.7-8.4v-202l195.9-1.2v317.1zm0-319.1 182.3 105.7-182.3 1.2zm-10.1-3.3v110.2l-156.3 1v-110.4zm-338.2-8.4v-24.1l171.7-61.9v85.1zm-756.4 570.1v-161.3l232.7-84.3-48.6 36.2-.4 143.1zm323.6-106h37.1l17.7 9.8-.2 71.1-184.8 134.8.5-169zm53.9 329.1-179.9-103.8 180.5-131.7zm10.1-1.3.7-241.7 121.1-88.4.4-78.1 144.3-106.8v64.6l190.7-1-.3 113.3z"/></svg>

<?xml version="1.0" encoding="utf-8"?>
<!-- Generator: Adobe Illustrator 22.0.1, SVG Export Plug-In . SVG Version: 6.00 Build 0)  -->
<svg version="1.1" id="Layer_1" xmlns="http://www.w3.org/2000/svg" xmlns:xlink="http://www.w3.org/1999/xlink" x="0px" y="0px"
	 viewBox="0 0 1505.1 1012.6" style="enable-background:new 0 0 1505.1 1012.6;" xml:space="preserve">
<path d="M1505.1,324.1l-207.8-120.5l-1.2-0.7l-163.5,0.8v-95.2L944.7,0L4.3,340.7L1,341.9L0,679.4l187.8,108.4L378,719.2l-0.5,178.2
	L574.3,1011l2.9,1.7L1045.6,666l459.4-2.9V324.1z M577.3,669.5l-1.4-0.8l2.4,0L577.3,669.5z M582.8,678.1l12.6-9.3l87.7,0.1
	l-100.5,73.3L582.8,678.1z M693.6,658.7l-84.5-0.1l84.8-62.8L693.6,658.7z M592.1,658.6l-34.5,0l-35.6-19.7V494.7l172.8-62.6
	L694,583.2L592.1,658.6z M511.9,660l-123.7,44.7l0.4-128.2l123.3,68.4V660z M184.2,774L17.1,677.6L184.2,617V774z M10.2,669.3
	l0.9-315l173.1,99.9v152.1L10.2,669.3z M950.7,15.2l164.8,95.1l-164.8,59.4V15.2z M940.6,173.4l-92.1,33.2v159.1l-143.3,51.9
	l0.5-91.1l-188.7,1.2l-327.2,118L18,346.5L940.6,12.3V173.4z M1122.4,433.4l-72.6-41.9l0.2-56.5l72.5-0.5V433.4z M1115.5,441.1
	l-65.9,23.8l0.2-61.7L1115.5,441.1z M1039.6,385.6l-34.6-20l34.7-25.7L1039.6,385.6z M1044.8,324.8l-1.7,0l-47.7,35.3l-44.8-25.9
	V214.7l171.7-0.9v110.4L1044.8,324.8z M940.6,332.3L858.6,362V215.2l81.9-0.4V332.3z M883,204.9l57.5-20.8v20.5L883,204.9z
	 M522.1,337.8l163.1-1L522.1,458.3V337.8z M695.4,341.8l-0.5,79.5l-172.9,62.6V471L695.4,341.8z M194.3,454.8L511.9,340v125.8
	l-56.7,42.2l-260.9,94.5V454.8z M511.9,478.5v9l-23.6,8.5L511.9,478.5z M511.9,498.4v134.9l-119-66l67.2-50.1L511.9,498.4z
	 M522.1,650.5l14.6,8.1l-14.6,0V650.5z M705.1,428.4l143.4-51.9v92.4L704.2,575.6L705.1,428.4z M858.6,372.8l85.1-30.8l42.8,24.7
	l-128,94.7V372.8z M996.2,372.2l43.4,25.1l-0.2,71.2l-180.8,65.2V474L996.2,372.2z M1039.4,479.3l-0.2,55.6L883,535.7L1039.4,479.3z
	 M1049.5,475.7l83-29.9V334.4l156.3-1v200.3l-239.5,1.2L1049.5,475.7z M1293.3,543.8l188,109.2l-432.3,2.8l0.3-110.8L1293.3,543.8z
	 M1299,535.4v-202l195.9-1.2v317.1L1299,535.4z M1299,216.3L1481.3,322l-182.3,1.2V216.3z M1288.9,213v110.2l-156.3,1V213.8
	L1288.9,213z M950.7,204.6v-24.1l171.7-61.9v85.1L950.7,204.6z M194.3,774.7V613.4l232.7-84.3l-48.6,36.2l-0.4,143.1L194.3,774.7z
	 M517.9,668.7l37.1,0l17.7,9.8l-0.2,71.1L387.7,884.4l0.5-169L517.9,668.7z M571.8,997.8L391.9,894l180.5-131.7L571.8,997.8z
	 M581.9,996.5l0.7-241.7l121.1-88.4l0.4-78.1l144.3-106.8v64.6l190.7-1l-0.3,113.3L581.9,996.5z"/>
</svg>
